polaris-icons/icons/newicons/TaxMajor.svg

<svg width="20" height="20" viewBox="0 0 20 20" fill="none" xmlns="http://www.w3.org/2000/svg">
<path d="M12.5303 6.46967C12.2374 6.17678 11.7626 6.17678 11.4697 6.46967L7.46967 10.4697C7.17678 10.7626 7.17678 11.2374 7.46967 11.5303C7.76256 11.8232 8.23744 11.8232 8.53033 11.5303L12.5303 7.53033C12.8232 7.23744 12.8232 6.76256 12.5303 6.46967Z" fill="black"/>
<path d="M9 7C9 7.55228 8.55228 8 8 8C7.44772 8 7 7.55228 7 7C7 6.44772 7.44772 6 8 6C8.55228 6 9 6.44772 9 7Z" fill="black"/>
<path d="M12 12C12.5523 12 13 11.5523 13 11C13 10.4477 12.5523 10 12 10C11.4477 10 11 10.4477 11 11C11 11.5523 11.4477 12 12 12Z" fill="black"/>
<path fill-rule="evenodd" clip-rule="evenodd" d="M4 16.5C4 17.1211 4.38275 17.6779 4.9626 17.9004C5.54245 18.1229 6.19945 17.9651 6.61493 17.5035L7.74999 16.2423L8.88506 17.5035C9.16952 17.8196 9.57477 18 10 18C10.4252 18 10.8305 17.8196 11.1149 17.5035L12.25 16.2423L13.3851 17.5035C13.8005 17.9651 14.4576 18.1229 15.0374 17.9004C15.6172 17.6779 16 17.1211 16 16.5V4.5C16 3.11929 14.8807 2 13.5 2H6.5C5.11929 2 4 3.11929 4 4.5V16.5ZM5.5 4.5V16.5L7.00671 14.8259C7.40395 14.3845 8.09605 14.3845 8.49329 14.8259L10 16.5L11.5067 14.8259C11.904 14.3845 12.5961 14.3845 12.9933 14.8259L14.5 16.5V4.5C14.5 3.94772 14.0523 3.5 13.5 3.5H6.5C5.94772 3.5 5.5 3.94772 5.5 4.5Z" fill="black"/>
</svg>

<svg viewBox="0 0 20 20" fill="none" xmlns="http://www.w3.org/2000/svg"><path d="M12.53 6.47a.75.75 0 0 0-1.06 0l-4 4a.75.75 0 1 0 1.06 1.06l4-4a.75.75 0 0 0 0-1.06Z" fill="#5C5F62"/><path d="M9 7a1 1 0 1 1-2 0 1 1 0 0 1 2 0Z" fill="#5C5F62"/><path d="M12 12a1 1 0 1 0 0-2 1 1 0 0 0 0 2Z" fill="#5C5F62"/><path fill-rule="evenodd" clip-rule="evenodd" d="M4 16.5a1.5 1.5 0 0 0 2.615 1.003l1.135-1.26 1.135 1.26a1.5 1.5 0 0 0 2.23 0l1.135-1.26 1.135 1.26a1.5 1.5 0 0 0 2.615-1.003v-12a2.5 2.5 0 0 0-2.5-2.5h-7a2.5 2.5 0 0 0-2.5 2.5v12Zm1.5-12v12l1.507-1.674a1 1 0 0 1 1.486 0l1.507 1.674 1.507-1.674a1 1 0 0 1 1.486 0l1.507 1.674v-12a1 1 0 0 0-1-1h-7a1 1 0 0 0-1 1Z" fill="#5C5F62"/></svg>
